Adwaita++-Light/panel/16/keybase-update.svg

<svg height="16" width="16" xmlns="http://www.w3.org/2000/svg">
  <path d="m7 1c-.03076 0-.340073.6290934-.53125 1.0078125-.2798665.5544135-.4131959.9820769-.4589844 1.4746094-.011312.12171-.0095431.241871-.0019531.359375-.00473.052935-.0073225.1050611-.0078125.1582031 0 .4587653.1601643.8774025.4199219 1.2148438-1.4584053.3982368-2.6975113 1.3301952-3.4882813 2.5761718-.155196.2029376-.291233.4139074-.390625.640625-.156183.3562616-.2734131.7247073-.3613281 1.1230469-.0585.2363652-.1071748.4761705-.1367187.7226565-.0026001.02194.0048949.026547.015625.023437-.0112802.09494-.0263763.185722-.0351563.285157-.02812.318757-.0311756.449217-.0097656.449218l3.9863281-4.035156-.9609375 3.011719c.0052.0052-.1058846.04768.0273437-.0136721.818545-.3768902 1.5688632-.8865106 2.4707032-.9941407.3110088-.0371158 1.388661-.0378802 1.7128906-.0039062.32761.0343275.6414166.219586.964844.421875a4 4 0 0 1 1.785156-.421875 4 4 0 0 1 1.205078.1855469c.088318-.2465709.129393-.5146848.097656-.7597657-.0068-.0524319-.02062-.1014581-.03125-.1523437.02116-.052393.001499-.141107-.082031-.2871094-.08219-.2184009-.203997-.4363377-.386719-.6835937-.884959-.9724579-1.965834-1.7383642-3.2226559-2.0898438.2592017-.3372435.4199219-.7546679.4199219-1.2128906-.000017-.050837-.0019494-.1016547-.0058594-.1523438.0017-.0506699.0064864-.1024842.0039063-.1523437-.035291-.6848115-.4311619-1.1539661-1.0292969-1.4628906-.3166713-.1635545-.801105-.2396037-1.1171875-.2402344-.4820356-.066083-.5615594-.7134888-.8515625-.9921875zm-2.4472656 8.8867188c0-.0000003-.4140169.3631912-1.828125 1.8515622-.167851.169733-.3928843.261141-.6289063.28125a6 6 0 0 0 1.4414063 2.980469h5.0039062a4 4 0 0 1 -.5410156-2 4 4 0 0 1 1.2871094-2.933594c-.0293801-.011866-.1347621-.0716499-.140625-.0722654-.094239-.00988-1.4475054-.0031469-1.4902344.0019532-.5962637.0711612-1.2510578.4863302-2.1660156.9082032-.0024.0012-.0034594.000806-.0058594.001953-.00328.0016-.012435.008166-.015625.009766-.050698.02504-.057682.030733-.1386719.058593-.020247.007-.1164672.033054-.1171875.033203-.0003601.000085-.2595855.021485-.2597656.021485l-.328125-.072266-.0859375-.039062.4609375-.886719s-.2241481-.0728709-.4472656-.1445312zm7.4472656.1132812c-1.656751 0-3 1.35-3 3s1.343249 3 3 3c1.65675 0 3-1.35 3-3s-1.34325-3-3-3zm0 1a2 2 0 0 1 2 2h-1a1 1 0 0 0 -1-1zm-7 1a1 1 0 0 1 1 1 1 1 0 0 1 -1 1 1 1 0 0 1 -1-1 1 1 0 0 1 1-1zm5 1h1a1 1 0 0 0 1 1v1a2 2 0 0 1 -2-2z" fill="#444"/>
</svg>

<svg xmlns="http://www.w3.org/2000/svg" width="16" height="16" version="1.1">
 <defs>
  <style id="current-color-scheme" type="text/css">
   .ColorScheme-Text { color:#444444; } .ColorScheme-Highlight { color:#4285f4; }
  </style>
 </defs>
 <path style="fill:currentColor" class="ColorScheme-Text" d="M 7 1 C 6.96924 1 6.659927 1.6290934 6.46875 2.0078125 C 6.1888835 2.562226 6.0555541 2.9898894 6.0097656 3.4824219 C 5.9984536 3.6041319 6.0002225 3.7242929 6.0078125 3.8417969 C 6.0030825 3.8947319 6.00049 3.946858 6 4 C 6 4.4587653 6.1601643 4.8774025 6.4199219 5.2148438 C 4.9615166 5.6130806 3.7224106 6.545039 2.9316406 7.7910156 C 2.7764446 7.9939532 2.6404076 8.204923 2.5410156 8.4316406 C 2.3848326 8.7879022 2.2676025 9.1563479 2.1796875 9.5546875 C 2.1211875 9.7910527 2.0725127 10.030858 2.0429688 10.277344 C 2.0403687 10.299284 2.0478637 10.303891 2.0585938 10.300781 C 2.0473136 10.395721 2.0322175 10.486503 2.0234375 10.585938 C 1.9953175 10.904695 1.9922619 11.035155 2.0136719 11.035156 L 6 7 L 5.0390625 10.011719 C 5.0442625 10.016919 4.9331779 10.059399 5.0664062 9.9980469 C 5.8849512 9.6211567 6.6352694 9.1115363 7.5371094 9.0039062 C 7.8481182 8.9667904 8.9257704 8.966026 9.25 9 C 9.57761 9.0343275 9.8914166 9.219586 10.214844 9.421875 A 4 4 0 0 1 12 9 A 4 4 0 0 1 13.205078 9.1855469 C 13.293396 8.938976 13.334471 8.6708621 13.302734 8.4257812 C 13.295934 8.3733493 13.282114 8.3243231 13.271484 8.2734375 C 13.292644 8.2210445 13.272983 8.1323305 13.189453 7.9863281 C 13.107263 7.7679272 12.985456 7.5499904 12.802734 7.3027344 C 11.917775 6.3302765 10.8369 5.5643702 9.5800781 5.2128906 C 9.8392798 4.8756471 10 4.4582227 10 4 C 9.999983 3.949163 9.9980506 3.8983453 9.9941406 3.8476562 C 9.9958406 3.7969863 10.000627 3.745172 9.9980469 3.6953125 C 9.9627559 3.010501 9.566885 2.5413464 8.96875 2.2324219 C 8.6520787 2.0688674 8.167645 1.9928182 7.8515625 1.9921875 C 7.3695269 1.9261045 7.2900031 1.2786987 7 1 z M 4.5527344 9.8867188 C 4.5527344 9.8867185 4.1387175 10.24991 2.7246094 11.738281 C 2.5567584 11.908014 2.3317251 11.999422 2.0957031 12.019531 A 6 6 0 0 0 3.5371094 15 L 8.5410156 15 A 4 4 0 0 1 8 13 A 4 4 0 0 1 9.2871094 10.066406 C 9.2577293 10.05454 9.1523473 9.9947561 9.1464844 9.9941406 C 9.0522454 9.9842606 7.698979 9.9909937 7.65625 9.9960938 C 7.0599863 10.067255 6.4051922 10.482424 5.4902344 10.904297 C 5.4878344 10.905497 5.486775 10.905103 5.484375 10.90625 C 5.481095 10.90785 5.47194 10.914416 5.46875 10.916016 C 5.418052 10.941056 5.411068 10.946749 5.3300781 10.974609 C 5.3098311 10.981609 5.2136109 11.007663 5.2128906 11.007812 C 5.2125305 11.007897 4.9533051 11.029297 4.953125 11.029297 L 4.625 10.957031 L 4.5390625 10.917969 L 5 10.03125 C 5 10.03125 4.7758519 9.9583791 4.5527344 9.8867188 z M 12 10 C 10.343249 10 9 11.35 9 13 C 9 14.65 10.343249 16 12 16 C 13.65675 16 15 14.65 15 13 C 15 11.35 13.65675 10 12 10 z M 12 11 A 2 2 0 0 1 14 13 L 13 13 A 1 1 0 0 0 12 12 L 12 11 z M 5 12 A 1 1 0 0 1 6 13 A 1 1 0 0 1 5 14 A 1 1 0 0 1 4 13 A 1 1 0 0 1 5 12 z M 10 13 L 11 13 A 1 1 0 0 0 12 14 L 12 15 A 2 2 0 0 1 10 13 z"/>
</svg>
